X:1653
L:1/8
Q:1/4=100
M:3/4
K:D
 (fe) | d3 e f2 | A2 (FG)(AB) | A4 fe | Td3 e (fe) | (dc)(de)(fg) | a4 g2 | (fg)(af)(ec) | 
 B2 (dc)(dF) | (GF)(GA)(Bc) | d3 c B2 | (Ad)(GF)(ED) | D4 :: (FE) | (DE)(FG)(AF) | D2 d2 (FG) | 
 E4 (FE) | (DE)(FG)(AF) | D2 d2 (FG) | A4 e2 | (fg)(af)(ec) | B2 (dc)(dA) | (GF)(GA)(Bc) | 
 d3 c B2 | (Ad)(GF)(ED) | D4 :|

